report_00007_2020-12-11T15:55:29.892Z/network-server-latency/comparison/line/10_vs_11.svg

<svg width="640" height="500" xmlns="http://www.w3.org/2000/svg" xmlns:xlink="http://www.w3.org/1999/xlink"><path fill="#fff" d="M0 0h640v500H0z"/><defs><path id="d" stroke-width=".222" stroke="currentColor" d="M-1-1h2v2h-2z"/><path id="b" stroke-width=".222" stroke="currentColor" d="M0-1.33l-1.33 2h2.66z"/><path id="f" stroke-width=".222" stroke="currentColor" d="M0 1.33L1.265.411.782-1.067l-1.564-.009-.483 1.487z"/><use xlink:href="#b" id="c" stroke="currentColor" transform="rotate(180)"/><use xlink:href="#d" id="e" stroke="currentColor" transform="rotate(45)"/><circle id="a" stroke-width=".222" stroke="currentColor" cx="0" cy="0" r="1"/></defs><g fill="none" color="#000" stroke="currentColor"><path stroke="#000" d="M37.3 427.3h9m568.7 0h-9"/><text transform="translate(29 431.2)" stroke="none" fill="#000" font-family="Arial" font-size="12" text-anchor="end"><tspan>1</tspan></text></g><g fill="none" color="#000" stroke="currentColor"><path stroke="#000" d="M37.3 369.6h9m568.7 0h-9"/><text transform="translate(29 373.5)" stroke="none" fill="#000" font-family="Arial" font-size="12" text-anchor="end"><tspan>2</tspan></text></g><g fill="none" color="#000" stroke="currentColor"><path stroke="#000" d="M37.3 311.8h9m568.7 0h-9"/><text transform="translate(29 315.7)" stroke="none" fill="#000" font-family="Arial" font-size="12" text-anchor="end"><tspan>3</tspan></text></g><g fill="none" color="#000" stroke="currentColor"><path stroke="#000" d="M37.3 254.1h9m568.7 0h-9"/><text transform="translate(29 258)" stroke="none" fill="#000" font-family="Arial" font-size="12" text-anchor="end"><tspan>4</tspan></text></g><g fill="none" color="#000" stroke="currentColor"><path stroke="#000" d="M37.3 196.3h9m568.7 0h-9"/><text transform="translate(29 200.2)" stroke="none" fill="#000" font-family="Arial" font-size="12" text-anchor="end"><tspan>5</tspan></text></g><g fill="none" color="#000" stroke="currentColor"><path stroke="#000" d="M37.3 138.6h9m568.7 0h-9"/><text transform="translate(29 142.5)" stroke="none" fill="#000" font-family="Arial" font-size="12" text-anchor="end"><tspan>6</tspan></text></g><g fill="none" color="#000" stroke="currentColor"><path stroke="#000" d="M37.3 80.8h9m568.7 0h-9"/><text transform="translate(29 84.7)" stroke="none" fill="#000" font-family="Arial" font-size="12" text-anchor="end"><tspan>7</tspan></text></g><g fill="none" color="#000" stroke="currentColor"><path stroke="#000" d="M37.3 23.1h9m568.7 0h-9"/><text transform="translate(29 27)" stroke="none" fill="#000" font-family="Arial" font-size="12" text-anchor="end"><tspan>8</tspan></text></g><g fill="none" color="#000" stroke="currentColor"><path stroke="#000" d="M37.3 428v-9m0-400.9v9"/><text transform="translate(37.3 449.9)" stroke="none" fill="#000" font-family="Arial" font-size="12" text-anchor="middle"><tspan>0</tspan></text></g><g fill="none" color="#000" stroke="currentColor"><path stroke="#000" d="M95.7 428v-9m0-400.9v9"/><text transform="translate(95.7 449.9)" stroke="none" fill="#000" font-family="Arial" font-size="12" text-anchor="middle"><tspan>10</tspan></text></g><g fill="none" color="#000" stroke="currentColor"><path stroke="#000" d="M154 428v-9m0-400.9v9"/><text transform="translate(154 449.9)" stroke="none" fill="#000" font-family="Arial" font-size="12" text-anchor="middle"><tspan>20</tspan></text></g><g fill="none" color="#000" stroke="currentColor"><path stroke="#000" d="M212.4 428v-9m0-400.9v9"/><text transform="translate(212.4 449.9)" stroke="none" fill="#000" font-family="Arial" font-size="12" text-anchor="middle"><tspan>30</tspan></text></g><g fill="none" color="#000" stroke="currentColor"><path stroke="#000" d="M270.7 428v-9m0-400.9v9"/><text transform="translate(270.7 449.9)" stroke="none" fill="#000" font-family="Arial" font-size="12" text-anchor="middle"><tspan>40</tspan></text></g><g fill="none" color="#000" stroke="currentColor"><path stroke="#000" d="M329.1 428v-9m0-400.9v9"/><text transform="translate(329.1 449.9)" stroke="none" fill="#000" font-family="Arial" font-size="12" text-anchor="middle"><tspan>50</tspan></text></g><g fill="none" color="#000" stroke="currentColor"><path stroke="#000" d="M387.4 428v-9m0-400.9v9"/><text transform="translate(387.4 449.9)" stroke="none" fill="#000" font-family="Arial" font-size="12" text-anchor="middle"><tspan>60</tspan></text></g><g fill="none" color="#000" stroke="currentColor"><path stroke="#000" d="M445.8 428v-9m0-400.9v9"/><text transform="translate(445.8 449.9)" stroke="none" fill="#000" font-family="Arial" font-size="12" text-anchor="middle"><tspan>70</tspan></text></g><g fill="none" color="#000" stroke="currentColor"><path stroke="#000" d="M504.1 428v-9m0-400.9v9"/><text transform="translate(504.1 449.9)" stroke="none" fill="#000" font-family="Arial" font-size="12" text-anchor="middle"><tspan>80</tspan></text></g><g fill="none" color="#000" stroke="currentColor"><path stroke="#000" d="M562.5 428v-9m0-400.9v9"/><text transform="translate(562.5 449.9)" stroke="none" fill="#000" font-family="Arial" font-size="12" text-anchor="middle"><tspan>90</tspan></text></g><path stroke="#000" d="M37.3 18.1V428H615V18.1H37.3z" fill="none" color="#000"/><text transform="translate(475.2 467.9)" stroke="none" fill="#000" font-family="Arial" font-size="12" text-anchor="end" color="#000"><tspan>pages+cached+noexternal+nojs</tspan></text><path stroke="#9400D3" d="M483.5 464h42.2M37.3 189.3l5.8-64.4L49 74.1l5.8 28.3 5.8 56 5.9 27 5.8-29.6 5.8-67.5 5.9 24.9 5.8 35.3 5.9-60 5.8 79.7 5.8-6.7 5.9-24.9 5.8 12.6 5.8-11.5 5.9 43.5 5.8-84.1 5.8 59.1 5.9-19.6 5.8 6.6 5.8-80.6 5.9 59.9 5.8 32.5 5.8-129 5.9 115.2 5.8 15.7 5.9-55.9 5.8 19.3 5.8 57.6 5.9-77.7 5.8 133.9 5.8 98.5 5.9-173.7 5.8 8.4 5.8-35.1 5.9 39.8 5.8-40.5L259 28.3l5.9 122.4 5.8 36.6 5.8 12.6 5.9 177 5.8-281.3 5.9 63.6 5.8-77.4 5.8 47.9 5.9 41.6 5.8-26.8 5.8 60.4 5.9 67.6 5.8-108.6 5.8-108.4 5.9 132.1 5.8 9.2 5.8 223.3 5.9-286.5 5.8 37.5 5.9-97.7 5.8 25.1 5.8 79.7 5.9-76.8 5.8 72 5.8-58.6 5.9 28.4 5.8-36.7 5.8 14.4 5.9-22.8 5.8 79 5.8.4 5.9-9.3 5.8 3.7 5.8-17.7 5.9-87.4 5.8 61.4 5.9-.3 5.8 34.3 5.8-4.4 5.9-9 5.8-19.6 5.8-75.4 5.9 22.7 5.8 72.4 5.8 16.8 5.9-1.5 5.8-74.3 5.8 22.4 5.9 108.2 5.8-75.7 5.8-6.9 5.9 13.4 5.8-40.8 5.9 24.1 5.8 37.8 5.8-49.6 5.9 25.4 5.8-48.1 5.8 78.8 5.9 11.5 5.8-70" fill="none" color="#000"/><text transform="translate(475.2 485.9)" stroke="none" fill="#000" font-family="Arial" font-size="12" text-anchor="end" color="#000"><tspan>pages+cached+noexternal+nofonts+nosvg+noimg</tspan></text><path stroke="#009E73" d="M483.5 482h42.2M37.3 255.5l5.8 5.3 5.9 13.7 5.8-65.8 5.8 62.5 5.9 1.2 5.8-17.6 5.8 22.8 5.9 6.2 5.8-54.3 5.9 29.6 5.8-4.4 5.8 1 5.9-28.9 5.8-1.8 5.8 22.6 5.9-36.5 5.8 9.3 5.8 60 5.9 16.4 5.8-14.3 5.8-72.3 5.9 72.2 5.8-55.3 5.8 39.7 5.9 28.5 5.8-7.7 5.9-9.7 5.8-69.5 5.8 19.3 5.9 11.7 5.8 8 5.8 17 5.9 14 5.8-.9 5.8-6.5 5.9-12.2 5.8-9.4 5.8 28.2 5.9-21.6 5.8-7.8 5.8 10.7 5.9-6.3 5.8-4.7 5.9 17.5 5.8-2.3 5.8-31.4 5.9 50.6 5.8-26.2 5.8 37.8 5.9-2.7 5.8-44 5.8 33.9 5.9-54 5.8 41.7 5.8-46.8 5.9 44.4 5.8-12.9 5.9 7.8 5.8 10.5 5.8-32.4 5.9-14.4 5.8 52.2 5.8-23.9 5.9-9.4 5.8-14.9 5.8 19.6 5.9-56.6 5.8 63.2 5.8 2.6 5.9-44.6 5.8 38.9 5.8 4.6 5.9-43.8 5.8 78.8 5.9-44.1 5.8-31.2 5.8 18.3 5.9-41.8 5.8 47.4 5.8 43.4 5.9-58.2 5.8 37.7 5.8 9.9 5.9-2.9 5.8-5.1 5.8-6.2 5.9 3.2 5.8-25.1 5.8 13 5.9-25.6 5.8 20.9 5.9-6.5 5.8 25.1 5.8 15.2 5.9-18.1 5.8 6.2 5.8-21.8 5.9 11.5 5.8-59.5" fill="none" color="#000"/><g fill="none" color="#000" stroke="currentColor"><path stroke="#000" d="M37.3 18.1V428H615V18.1H37.3z"/></g></svg>

<?xml version="1.0" encoding="utf-8"  standalone="no"?>
<svg 
 width="640" height="500"
 viewBox="0 0 640 500"
 xmlns="http://www.w3.org/2000/svg"
 xmlns:xlink="http://www.w3.org/1999/xlink"
>

<title>Gnuplot</title>
<desc>Produced by GNUPLOT 5.4 patchlevel 0 </desc>

<g id="gnuplot_canvas">

<rect x="0" y="0" width="640" height="500" fill="#ffffff"/>
<defs>

	<circle id='gpDot' r='0.5' stroke-width='0.5' stroke='currentColor'/>
	<path id='gpPt0' stroke-width='0.222' stroke='currentColor' d='M-1,0 h2 M0,-1 v2'/>
	<path id='gpPt1' stroke-width='0.222' stroke='currentColor' d='M-1,-1 L1,1 M1,-1 L-1,1'/>
	<path id='gpPt2' stroke-width='0.222' stroke='currentColor' d='M-1,0 L1,0 M0,-1 L0,1 M-1,-1 L1,1 M-1,1 L1,-1'/>
	<rect id='gpPt3' stroke-width='0.222' stroke='currentColor' x='-1' y='-1' width='2' height='2'/>
	<rect id='gpPt4' stroke-width='0.222' stroke='currentColor' fill='currentColor' x='-1' y='-1' width='2' height='2'/>
	<circle id='gpPt5' stroke-width='0.222' stroke='currentColor' cx='0' cy='0' r='1'/>
	<use xlink:href='#gpPt5' id='gpPt6' fill='currentColor' stroke='none'/>
	<path id='gpPt7' stroke-width='0.222' stroke='currentColor' d='M0,-1.33 L-1.33,0.67 L1.33,0.67 z'/>
	<use xlink:href='#gpPt7' id='gpPt8' fill='currentColor' stroke='none'/>
	<use xlink:href='#gpPt7' id='gpPt9' stroke='currentColor' transform='rotate(180)'/>
	<use xlink:href='#gpPt9' id='gpPt10' fill='currentColor' stroke='none'/>
	<use xlink:href='#gpPt3' id='gpPt11' stroke='currentColor' transform='rotate(45)'/>
	<use xlink:href='#gpPt11' id='gpPt12' fill='currentColor' stroke='none'/>
	<path id='gpPt13' stroke-width='0.222' stroke='currentColor' d='M0,1.330 L1.265,0.411 L0.782,-1.067 L-0.782,-1.076 L-1.265,0.411 z'/>
	<use xlink:href='#gpPt13' id='gpPt14' fill='currentColor' stroke='none'/>
	<filter id='textbox' filterUnits='objectBoundingBox' x='0' y='0' height='1' width='1'>
	  <feFlood flood-color='#FFFFFF' flood-opacity='1' result='bgnd'/>
	  <feComposite in='SourceGraphic' in2='bgnd' operator='atop'/>
	</filter>
	<filter id='greybox' filterUnits='objectBoundingBox' x='0' y='0' height='1' width='1'>
	  <feFlood flood-color='lightgrey' flood-opacity='1' result='grey'/>
	  <feComposite in='SourceGraphic' in2='grey' operator='atop'/>
	</filter>
</defs>
<g fill="none" color="#FFFFFF" stroke="black" stroke-width="1.00" stroke-linecap="butt" stroke-linejoin="miter">
</g>
<g fill="none" color="black" stroke="currentColor" stroke-width="1.00" stroke-linecap="butt" stroke-linejoin="miter">
	<path stroke='black'  d='M37.3,427.3 L46.3,427.3 M615.0,427.3 L606.0,427.3  '/>	<g transform="translate(29.0,431.2)" stroke="none" fill="black" font-family="Arial" font-size="12.00"  text-anchor="end">
		<text><tspan font-family="Arial" > 1</tspan></text>
	</g>
</g>
<g fill="none" color="black" stroke="currentColor" stroke-width="1.00" stroke-linecap="butt" stroke-linejoin="miter">
	<path stroke='black'  d='M37.3,369.6 L46.3,369.6 M615.0,369.6 L606.0,369.6  '/>	<g transform="translate(29.0,373.5)" stroke="none" fill="black" font-family="Arial" font-size="12.00"  text-anchor="end">
		<text><tspan font-family="Arial" > 2</tspan></text>
	</g>
</g>
<g fill="none" color="black" stroke="currentColor" stroke-width="1.00" stroke-linecap="butt" stroke-linejoin="miter">
	<path stroke='black'  d='M37.3,311.8 L46.3,311.8 M615.0,311.8 L606.0,311.8  '/>	<g transform="translate(29.0,315.7)" stroke="none" fill="black" font-family="Arial" font-size="12.00"  text-anchor="end">
		<text><tspan font-family="Arial" > 3</tspan></text>
	</g>
</g>
<g fill="none" color="black" stroke="currentColor" stroke-width="1.00" stroke-linecap="butt" stroke-linejoin="miter">
	<path stroke='black'  d='M37.3,254.1 L46.3,254.1 M615.0,254.1 L606.0,254.1  '/>	<g transform="translate(29.0,258.0)" stroke="none" fill="black" font-family="Arial" font-size="12.00"  text-anchor="end">
		<text><tspan font-family="Arial" > 4</tspan></text>
	</g>
</g>
<g fill="none" color="black" stroke="currentColor" stroke-width="1.00" stroke-linecap="butt" stroke-linejoin="miter">
	<path stroke='black'  d='M37.3,196.3 L46.3,196.3 M615.0,196.3 L606.0,196.3  '/>	<g transform="translate(29.0,200.2)" stroke="none" fill="black" font-family="Arial" font-size="12.00"  text-anchor="end">
		<text><tspan font-family="Arial" > 5</tspan></text>
	</g>
</g>
<g fill="none" color="black" stroke="currentColor" stroke-width="1.00" stroke-linecap="butt" stroke-linejoin="miter">
	<path stroke='black'  d='M37.3,138.6 L46.3,138.6 M615.0,138.6 L606.0,138.6  '/>	<g transform="translate(29.0,142.5)" stroke="none" fill="black" font-family="Arial" font-size="12.00"  text-anchor="end">
		<text><tspan font-family="Arial" > 6</tspan></text>
	</g>
</g>
<g fill="none" color="black" stroke="currentColor" stroke-width="1.00" stroke-linecap="butt" stroke-linejoin="miter">
	<path stroke='black'  d='M37.3,80.8 L46.3,80.8 M615.0,80.8 L606.0,80.8  '/>	<g transform="translate(29.0,84.7)" stroke="none" fill="black" font-family="Arial" font-size="12.00"  text-anchor="end">
		<text><tspan font-family="Arial" > 7</tspan></text>
	</g>
</g>
<g fill="none" color="black" stroke="currentColor" stroke-width="1.00" stroke-linecap="butt" stroke-linejoin="miter">
	<path stroke='black'  d='M37.3,23.1 L46.3,23.1 M615.0,23.1 L606.0,23.1  '/>	<g transform="translate(29.0,27.0)" stroke="none" fill="black" font-family="Arial" font-size="12.00"  text-anchor="end">
		<text><tspan font-family="Arial" > 8</tspan></text>
	</g>
</g>
<g fill="none" color="black" stroke="currentColor" stroke-width="1.00" stroke-linecap="butt" stroke-linejoin="miter">
	<path stroke='black'  d='M37.3,428.0 L37.3,419.0 M37.3,18.1 L37.3,27.1  '/>	<g transform="translate(37.3,449.9)" stroke="none" fill="black" font-family="Arial" font-size="12.00"  text-anchor="middle">
		<text><tspan font-family="Arial" > 0</tspan></text>
	</g>
</g>
<g fill="none" color="black" stroke="currentColor" stroke-width="1.00" stroke-linecap="butt" stroke-linejoin="miter">
	<path stroke='black'  d='M95.7,428.0 L95.7,419.0 M95.7,18.1 L95.7,27.1  '/>	<g transform="translate(95.7,449.9)" stroke="none" fill="black" font-family="Arial" font-size="12.00"  text-anchor="middle">
		<text><tspan font-family="Arial" > 10</tspan></text>
	</g>
</g>
<g fill="none" color="black" stroke="currentColor" stroke-width="1.00" stroke-linecap="butt" stroke-linejoin="miter">
	<path stroke='black'  d='M154.0,428.0 L154.0,419.0 M154.0,18.1 L154.0,27.1  '/>	<g transform="translate(154.0,449.9)" stroke="none" fill="black" font-family="Arial" font-size="12.00"  text-anchor="middle">
		<text><tspan font-family="Arial" > 20</tspan></text>
	</g>
</g>
<g fill="none" color="black" stroke="currentColor" stroke-width="1.00" stroke-linecap="butt" stroke-linejoin="miter">
	<path stroke='black'  d='M212.4,428.0 L212.4,419.0 M212.4,18.1 L212.4,27.1  '/>	<g transform="translate(212.4,449.9)" stroke="none" fill="black" font-family="Arial" font-size="12.00"  text-anchor="middle">
		<text><tspan font-family="Arial" > 30</tspan></text>
	</g>
</g>
<g fill="none" color="black" stroke="currentColor" stroke-width="1.00" stroke-linecap="butt" stroke-linejoin="miter">
	<path stroke='black'  d='M270.7,428.0 L270.7,419.0 M270.7,18.1 L270.7,27.1  '/>	<g transform="translate(270.7,449.9)" stroke="none" fill="black" font-family="Arial" font-size="12.00"  text-anchor="middle">
		<text><tspan font-family="Arial" > 40</tspan></text>
	</g>
</g>
<g fill="none" color="black" stroke="currentColor" stroke-width="1.00" stroke-linecap="butt" stroke-linejoin="miter">
	<path stroke='black'  d='M329.1,428.0 L329.1,419.0 M329.1,18.1 L329.1,27.1  '/>	<g transform="translate(329.1,449.9)" stroke="none" fill="black" font-family="Arial" font-size="12.00"  text-anchor="middle">
		<text><tspan font-family="Arial" > 50</tspan></text>
	</g>
</g>
<g fill="none" color="black" stroke="currentColor" stroke-width="1.00" stroke-linecap="butt" stroke-linejoin="miter">
	<path stroke='black'  d='M387.4,428.0 L387.4,419.0 M387.4,18.1 L387.4,27.1  '/>	<g transform="translate(387.4,449.9)" stroke="none" fill="black" font-family="Arial" font-size="12.00"  text-anchor="middle">
		<text><tspan font-family="Arial" > 60</tspan></text>
	</g>
</g>
<g fill="none" color="black" stroke="currentColor" stroke-width="1.00" stroke-linecap="butt" stroke-linejoin="miter">
	<path stroke='black'  d='M445.8,428.0 L445.8,419.0 M445.8,18.1 L445.8,27.1  '/>	<g transform="translate(445.8,449.9)" stroke="none" fill="black" font-family="Arial" font-size="12.00"  text-anchor="middle">
		<text><tspan font-family="Arial" > 70</tspan></text>
	</g>
</g>
<g fill="none" color="black" stroke="currentColor" stroke-width="1.00" stroke-linecap="butt" stroke-linejoin="miter">
	<path stroke='black'  d='M504.1,428.0 L504.1,419.0 M504.1,18.1 L504.1,27.1  '/>	<g transform="translate(504.1,449.9)" stroke="none" fill="black" font-family="Arial" font-size="12.00"  text-anchor="middle">
		<text><tspan font-family="Arial" > 80</tspan></text>
	</g>
</g>
<g fill="none" color="black" stroke="currentColor" stroke-width="1.00" stroke-linecap="butt" stroke-linejoin="miter">
	<path stroke='black'  d='M562.5,428.0 L562.5,419.0 M562.5,18.1 L562.5,27.1  '/>	<g transform="translate(562.5,449.9)" stroke="none" fill="black" font-family="Arial" font-size="12.00"  text-anchor="middle">
		<text><tspan font-family="Arial" > 90</tspan></text>
	</g>
</g>
<g fill="none" color="black" stroke="currentColor" stroke-width="1.00" stroke-linecap="butt" stroke-linejoin="miter">
</g>
<g fill="none" color="black" stroke="currentColor" stroke-width="1.00" stroke-linecap="butt" stroke-linejoin="miter">
	<path stroke='black'  d='M37.3,18.1 L37.3,428.0 L615.0,428.0 L615.0,18.1 L37.3,18.1 Z  '/></g>
<g fill="none" color="black" stroke="currentColor" stroke-width="1.00" stroke-linecap="butt" stroke-linejoin="miter">
</g>
	<g id="gnuplot_plot_1" ><title>pages+cached+noexternal+nojs</title>
<g fill="none" color="black" stroke="currentColor" stroke-width="1.00" stroke-linecap="butt" stroke-linejoin="miter">
	<g transform="translate(475.2,467.9)" stroke="none" fill="black" font-family="Arial" font-size="12.00"  text-anchor="end">
		<text><tspan font-family="Arial" >pages+cached+noexternal+nojs</tspan></text>
	</g>
</g>
<g fill="none" color="black" stroke="currentColor" stroke-width="1.00" stroke-linecap="butt" stroke-linejoin="miter">
	<path stroke='rgb(148,   0, 211)'  d='M483.5,464.0 L525.7,464.0 M37.3,189.3 L43.1,124.9 L49.0,74.1 L54.8,102.4 L60.6,158.4 L66.5,185.4
		L72.3,155.8 L78.1,88.3 L84.0,113.2 L89.8,148.5 L95.7,88.5 L101.5,168.2 L107.3,161.5 L113.2,136.6
		L119.0,149.2 L124.8,137.7 L130.7,181.2 L136.5,97.1 L142.3,156.2 L148.2,136.6 L154.0,143.2 L159.8,62.6
		L165.7,122.5 L171.5,155.0 L177.3,26.0 L183.2,141.2 L189.0,156.9 L194.9,101.0 L200.7,120.3 L206.5,177.9
		L212.4,100.2 L218.2,234.1 L224.0,332.6 L229.9,158.9 L235.7,167.3 L241.5,132.2 L247.4,172.0 L253.2,131.5
		L259.0,28.3 L264.9,150.7 L270.7,187.3 L276.5,199.9 L282.4,376.9 L288.2,95.6 L294.1,159.2 L299.9,81.8
		L305.7,129.7 L311.6,171.3 L317.4,144.5 L323.2,204.9 L329.1,272.5 L334.9,163.9 L340.7,55.5 L346.6,187.6
		L352.4,196.8 L358.2,420.1 L364.1,133.6 L369.9,171.1 L375.8,73.4 L381.6,98.5 L387.4,178.2 L393.3,101.4
		L399.1,173.4 L404.9,114.8 L410.8,143.2 L416.6,106.5 L422.4,120.9 L428.3,98.1 L434.1,177.1 L439.9,177.5
		L445.8,168.2 L451.6,171.9 L457.4,154.2 L463.3,66.8 L469.1,128.2 L475.0,127.9 L480.8,162.2 L486.6,157.8
		L492.5,148.8 L498.3,129.2 L504.1,53.8 L510.0,76.5 L515.8,148.9 L521.6,165.7 L527.5,164.2 L533.3,89.9
		L539.1,112.3 L545.0,220.5 L550.8,144.8 L556.6,137.9 L562.5,151.3 L568.3,110.5 L574.2,134.6 L580.0,172.4
		L585.8,122.8 L591.7,148.2 L597.5,100.1 L603.3,178.9 L609.2,190.4 L615.0,120.4  '/></g>
	</g>
	<g id="gnuplot_plot_2" ><title>pages+cached+noexternal+nofonts+nosvg+noimg</title>
<g fill="none" color="black" stroke="currentColor" stroke-width="1.00" stroke-linecap="butt" stroke-linejoin="miter">
	<g transform="translate(475.2,485.9)" stroke="none" fill="black" font-family="Arial" font-size="12.00"  text-anchor="end">
		<text><tspan font-family="Arial" >pages+cached+noexternal+nofonts+nosvg+noimg</tspan></text>
	</g>
</g>
<g fill="none" color="black" stroke="currentColor" stroke-width="1.00" stroke-linecap="butt" stroke-linejoin="miter">
	<path stroke='rgb(  0, 158, 115)'  d='M483.5,482.0 L525.7,482.0 M37.3,255.5 L43.1,260.8 L49.0,274.5 L54.8,208.7 L60.6,271.2 L66.5,272.4
		L72.3,254.8 L78.1,277.6 L84.0,283.8 L89.8,229.5 L95.7,259.1 L101.5,254.7 L107.3,255.7 L113.2,226.8
		L119.0,225.0 L124.8,247.6 L130.7,211.1 L136.5,220.4 L142.3,280.4 L148.2,296.8 L154.0,282.5 L159.8,210.2
		L165.7,282.4 L171.5,227.1 L177.3,266.8 L183.2,295.3 L189.0,287.6 L194.9,277.9 L200.7,208.4 L206.5,227.7
		L212.4,239.4 L218.2,247.4 L224.0,264.4 L229.9,278.4 L235.7,277.5 L241.5,271.0 L247.4,258.8 L253.2,249.4
		L259.0,277.6 L264.9,256.0 L270.7,248.2 L276.5,258.9 L282.4,252.6 L288.2,247.9 L294.1,265.4 L299.9,263.1
		L305.7,231.7 L311.6,282.3 L317.4,256.1 L323.2,293.9 L329.1,291.2 L334.9,247.2 L340.7,281.1 L346.6,227.1
		L352.4,268.8 L358.2,222.0 L364.1,266.4 L369.9,253.5 L375.8,261.3 L381.6,271.8 L387.4,239.4 L393.3,225.0
		L399.1,277.2 L404.9,253.3 L410.8,243.9 L416.6,229.0 L422.4,248.6 L428.3,192.0 L434.1,255.2 L439.9,257.8
		L445.8,213.2 L451.6,252.1 L457.4,256.7 L463.3,212.9 L469.1,291.7 L475.0,247.6 L480.8,216.4 L486.6,234.7
		L492.5,192.9 L498.3,240.3 L504.1,283.7 L510.0,225.5 L515.8,263.2 L521.6,273.1 L527.5,270.2 L533.3,265.1
		L539.1,258.9 L545.0,262.1 L550.8,237.0 L556.6,250.0 L562.5,224.4 L568.3,245.3 L574.2,238.8 L580.0,263.9
		L585.8,279.1 L591.7,261.0 L597.5,267.2 L603.3,245.4 L609.2,256.9 L615.0,197.4  '/></g>
	</g>
<g fill="none" color="#FFFFFF" stroke="rgb(  0, 158, 115)" stroke-width="2.00" stroke-linecap="butt" stroke-linejoin="miter">
</g>
<g fill="none" color="black" stroke="currentColor" stroke-width="2.00" stroke-linecap="butt" stroke-linejoin="miter">
</g>
<g fill="none" color="black" stroke="black" stroke-width="1.00" stroke-linecap="butt" stroke-linejoin="miter">
</g>
<g fill="none" color="black" stroke="currentColor" stroke-width="1.00" stroke-linecap="butt" stroke-linejoin="miter">
	<path stroke='black'  d='M37.3,18.1 L37.3,428.0 L615.0,428.0 L615.0,18.1 L37.3,18.1 Z  '/></g>
<g fill="none" color="black" stroke="currentColor" stroke-width="1.00" stroke-linecap="butt" stroke-linejoin="miter">
</g>
</g>
</svg>
